src/assets/bold/lm-sparkles-bold.svg

<svg width="24" height="24" viewBox="0 0 24 24" fill="none" xmlns="http://www.w3.org/2000/svg" fill="currentColor">
<path d="M16.8146 16.2957C17.0893 15.8025 17.8608 15.8241 18.0665 16.4061L18.295 17.0399L18.3771 17.2342C18.5932 17.6735 18.973 18.0153 19.4386 18.1834L20.0763 18.4139L20.1837 18.4627C20.6814 18.7391 20.646 19.5053 20.0772 19.7117L20.0763 19.7127L19.4386 19.9422C18.9063 20.1344 18.4871 20.5544 18.295 21.0867L18.0646 21.7235C17.8445 22.3302 16.9868 22.3312 16.7667 21.7244L16.7657 21.7235L16.5362 21.0867L16.4532 20.8924C16.2678 20.5156 15.9629 20.2095 15.586 20.0242L15.3917 19.9422L14.755 19.7127L14.754 19.7117C14.1477 19.4915 14.1476 18.6341 14.754 18.4139L15.3917 18.1834L15.586 18.1014C16.0257 17.8852 16.3681 17.5058 16.5362 17.0399L16.7657 16.4022L16.7667 16.4012L16.8146 16.2957ZM17.4151 18.0711C17.1631 18.4721 16.824 18.8114 16.423 19.0633C16.8237 19.3151 17.1632 19.6538 17.4151 20.0545C17.6669 19.654 18.006 19.3151 18.4064 19.0633C18.0058 18.8114 17.6669 18.4717 17.4151 18.0711Z" fill="black"/>
<path d="M9.5919 5.68341C9.83389 5.00949 10.7365 4.97588 11.0597 5.55841L11.1163 5.68341L11.7677 7.49005L11.9005 7.82892C12.609 9.4972 13.983 10.8024 15.6983 11.4207L17.505 12.0711L17.506 12.0721L17.631 12.1287C18.2123 12.4525 18.1778 13.355 17.504 13.5965L17.503 13.5955L15.6983 14.2459C13.9827 14.8643 12.609 16.1701 11.9005 17.8387L11.7677 18.1766L11.1163 19.9832V19.9852C10.8592 20.6926 9.84986 20.7013 9.5919 19.9832L8.94151 18.1766C8.32309 16.4613 7.01815 15.0871 5.34971 14.3787L5.01084 14.2459L3.2042 13.5955C2.49681 13.3383 2.48686 12.3289 3.20518 12.0711L5.01084 11.4207L5.34971 11.2879C7.01828 10.5794 8.32318 9.20556 8.94151 7.49005L9.5919 5.68341ZM10.1183 7.91388C9.38158 9.95776 7.82593 11.5943 5.83799 12.4383L5.43467 12.5965L4.77647 12.8328L5.43467 13.0701L5.83799 13.2283C7.82581 14.0723 9.38051 15.7091 10.1173 17.7527L10.3546 18.409L10.5909 17.7527L10.7491 17.3494C11.5932 15.3617 13.2307 13.8068 15.2745 13.0701L15.9317 12.8328L15.2745 12.5965C13.2306 11.8598 11.5931 10.3051 10.7491 8.3172L10.5909 7.91388L10.3546 7.25665L10.1183 7.91388Z" fill="black"/>
<path d="M16.8858 2.29279C17.1081 1.67635 17.9963 1.65989 18.2198 2.29865L18.2189 2.29962L18.5069 3.0965L18.5587 3.22931C18.8365 3.88322 19.3757 4.39491 20.048 4.63751L20.8517 4.92755L20.962 4.97736C21.472 5.26063 21.4355 6.04616 20.8526 6.25763L20.8517 6.25861L20.048 6.54767C19.3758 6.79021 18.8365 7.30212 18.5587 7.95587L18.5069 8.08869L18.2169 8.8924C17.9914 9.51418 17.1124 9.51516 16.8868 8.89337L16.8858 8.8924L16.5968 8.08869C16.3542 7.41662 15.8423 6.87824 15.1886 6.6004L15.0558 6.54767L14.2521 6.25861L14.2511 6.25763C13.6297 6.0319 13.6297 5.1532 14.2511 4.92755L15.0558 4.63751L15.1886 4.58576C15.8425 4.3079 16.3543 3.76879 16.5968 3.0965L16.8858 2.29279ZM17.5509 4.01447C17.1941 4.68611 16.6454 5.23585 15.9737 5.59259C16.645 5.94909 17.1941 6.49866 17.5509 7.16974C17.9075 6.49848 18.4578 5.94929 19.129 5.59259C18.4576 5.2357 17.9075 4.68612 17.5509 4.01447Z" fill="black"/>
</svg>

<svg xmlns="http://www.w3.org/2000/svg" width="24" height="24" fill="currentColor" viewBox="0 0 24 24">
  <path d="M16.815 16.296c.274-.493 1.046-.472 1.252.11l.228.634.082.194c.216.44.596.781 1.062.95l.637.23.108.049c.497.276.462 1.042-.107 1.249l-.638.23a1.904 1.904 0 0 0-1.144 1.145l-.23.637c-.22.606-1.078.607-1.298 0h-.001l-.23-.637-.083-.195a1.904 1.904 0 0 0-.867-.868l-.194-.082-.637-.23h-.001c-.606-.22-.606-1.078 0-1.298l.638-.23.194-.083a1.9 1.9 0 0 0 .95-1.061l.23-.638.049-.106Zm.6 1.775c-.252.401-.591.74-.992.992.4.252.74.59.992.992a3.16 3.16 0 0 1 .991-.992c-.4-.252-.74-.591-.99-.992ZM9.592 5.683c.242-.674 1.144-.707 1.468-.125l.056.125.652 1.807.132.339a6.534 6.534 0 0 0 3.798 3.592l1.807.65.001.001.125.057c.581.324.547 1.226-.127 1.468l-.001-.002-1.805.65A6.534 6.534 0 0 0 11.9 17.84l-.132.338-.652 1.806v.002c-.257.708-1.266.716-1.524-.002l-.65-1.806A6.534 6.534 0 0 0 5.35 14.38l-.34-.133-1.806-.65c-.707-.258-.717-1.267.001-1.525l1.806-.65.339-.133A6.533 6.533 0 0 0 8.942 7.49l.65-1.807Zm.526 2.23a7.784 7.784 0 0 1-4.28 4.525l-.403.159-.659.236.659.237.403.158a7.784 7.784 0 0 1 4.28 4.525l.237.656.236-.656.158-.404a7.785 7.785 0 0 1 4.525-4.279l.658-.237-.658-.236a7.784 7.784 0 0 1-4.525-4.28l-.158-.403-.236-.657-.237.657Zm6.768-5.62c.222-.617 1.11-.633 1.334.006h-.001l.288.797.052.133a2.564 2.564 0 0 0 1.489 1.409l.804.29.11.05c.51.283.474 1.068-.11 1.28l-.804.29a2.565 2.565 0 0 0-1.49 1.408l-.051.133-.29.803c-.226.622-1.105.623-1.33.001h-.001l-.29-.804A2.564 2.564 0 0 0 15.19 6.6l-.133-.052-.804-.29c-.622-.226-.622-1.105 0-1.33l.804-.29.133-.052a2.564 2.564 0 0 0 1.408-1.49l.289-.803Zm.665 1.721a3.81 3.81 0 0 1-1.577 1.579c.671.356 1.22.906 1.577 1.577a3.813 3.813 0 0 1 1.578-1.577 3.813 3.813 0 0 1-1.578-1.579Z"/>
</svg>
